!!!COM: Claude Goudimel
!!!OMD: Psalm 105: Sus, qu'un chacun de nous
**kern	**kern	**kern	**kern
*part4	*part3	*part2	*part1
*staff4	*staff3	*staff2	*staff1
*I"bassus	*I"tenor	*I"contra	*I"superius
*clefF3	*clefC3	*clefC2	*clefG2
*k[b-]	*k[b-]	*k[b-]	*k[b-]
!!LO:TX:omd:t=
*M2/2	*M2/2	*M2/2	*M2/2
*met(c|)	*met(c|)	*met(c|)	*met(c|)
=1	=1	=1	=1
1F	1F	1A	1c
=2	=2	=2	=2
2D	2A	2d	2f
2G	2B-	2d	2g
=3	=3	=3	=3
1F	1c	1f	1a
=4	=4	=4	=4
1F	1f	1a	1cc
=5	=5	=5	=5
2c	2e	2g	2cc
2F	2f	2a	[2cc
=6	=6	=6	=6
1G	1d	1g	2cc]
.	.	.	2bn
=7	=7	=7	=7
1C	1c	1g	1cc
=8	=8	=8	=8
1r	1r	1r	1r
=9	=9	=9	=9
1F	1c	1f	1a
=10	=10	=10	=10
2F	2f	2a	2cc
2C	2e	2g	2cc
=11	=11	=11	=11
1G	1d	1g	1b-
=12	=12	=12	=12
1C	1c	1e	1g
=13	=13	=13	=13
2D	2A	2d	2f
2D	2F	2A	[2f
=14	=14	=14	=14
1C	1G	1c	2f]
.	.	.	2e
=15	=15	=15	=15
1F	1F	1c	1f
=16	=16	=16	=16
1r	1r	1r	1r
=17	=17	=17	=17
1BB-	1B-	1d	1f
=18	=18	=18	=18
2F	2A	2c	2f
2G	2B-	2B-	2d
=19	=19	=19	=19
2F	2c	2f	2a
2BB-	[2d	2f	2b-
=20	=20	=20	=20
1F	2d]	1f	1a
.	[2c	.	.
=21	=21	=21	=21
1G	2c]	1d	1g
.	2Bn	.	.
=22	=22	=22	=22
1C	1c	1e	1g
=23	=23	=23	=23
1r	1r	1r	1r
=24	=24	=24	=24
1F	1c	1A	1f
=25	=25	=25	=25
2F	2A	2c	2f
2G	2B-	2B-	2d
=26	=26	=26	=26
2F	2c	2f	2a
2BB-	[2d	2f	2b-
=27	=27	=27	=27
1F	2d]	1f	1a
.	[2c	.	.
=28	=28	=28	=28
1G	2c]	1d	1g
.	2Bn	.	.
=29	=29	=29	=29
1C	1c	1e	1g
=30	=30	=30	=30
1r	1r	1r	1r
=31	=31	=31	=31
1F	1c	1f	1a
=32	=32	=32	=32
2F	2f	2a	2cc
2C	2e	2g	2cc
=33	=33	=33	=33
2D	2d	2f	2b-
2F	2c	2f	[2a
=34	=34	=34	=34
1G	1B-	1d	2a]
.	.	.	[2g
=35	=35	=35	=35
1D	1A	1d	2g]
.	.	.	2f#X
=36	=36	=36	=36
1G	1G	1d	1g
=37	=37	=37	=37
1r	1r	1r	1r
=38	=38	=38	=38
1F	1c	1A	1f
=39	=39	=39	=39
2F	2A	2c	2f
2BB-	2d	2f	2b-
=40	=40	=40	=40
2F	2c	2f	2a
2G	2B-	[2d	[2g
=41	=41	=41	=41
4D	1A	2d]	2g]
4E	.	.	.
2F	.	2c	[2f
=42	=42	=42	=42
1C	1G	1c	2f]
.	.	.	2e
=43	=43	=43	=43
1F;	1F;	1c;	1f;
==	==	==	==
*-	*-	*-	*-
!!!software: music21 v.9.7.1
!!!software: music21 v.9.1.0
!!!RDF**kern: > = above
!!!RDF**kern: < = below
